X:28
T:Down with the Tithes
T:The Widow well Married
R:jig
H:Written from memory.  I find a copy also in a very old MS.
B:
M:6/8
L:1/8
K:G
GBA G2 B|def gdB|GBA G2 B|AFD D3|
GBA G2 B|def gfg|ecA dBG|FDF G3:|
|:d3 dBd|def gdc|Bdd dBG|AFD D3|
d3 dBd|def gfg|ecA dBG|FDF G3:|
